public/img/field-5.svg

<svg width="79" height="75" viewBox="0 0 79 75" fill="none" xmlns="http://www.w3.org/2000/svg">
<g clip-path="url(#clip0)">
<path d="M44.6064 8.34275C39.9702 -2.76848 24.2118 -2.7931 19.5661 8.3425C18.2097 11.6 18.1481 15.3495 19.5497 18.7336C19.5552 18.749 19.5597 18.7646 19.5661 18.7797C24.1518 29.7715 39.9269 29.9938 44.6064 18.7796C45.9687 15.5434 46.0218 11.7411 44.6064 8.34275ZM26.7431 3.16851C25.5872 4.77588 24.8294 6.71788 24.3819 8.63813C23.4952 8.48125 22.6218 8.29725 21.764 8.08488C22.8834 5.98326 24.6256 4.26163 26.7431 3.16851ZM21.0105 9.82787C22.0023 10.0816 23.0134 10.2992 24.0418 10.4815C23.7653 12.48 23.7558 14.574 24.0418 16.6407C23.0134 16.823 22.0023 17.0406 21.0105 17.2945C20.1956 14.8836 20.1937 12.2437 21.0105 9.82787ZM21.764 19.0372C22.6218 18.8249 23.4952 18.6409 24.3819 18.484C24.8283 20.3996 25.5849 22.343 26.7431 23.9536C24.6256 22.8603 22.8834 21.1389 21.764 19.0372ZM31.1486 25.1158C28.4981 24.3343 26.9023 20.8706 26.2501 18.197C27.8459 17.989 29.4814 17.8684 31.1486 17.8354V25.1158ZM31.1486 15.9599C29.3624 15.9937 27.6096 16.1245 25.8997 16.3519C25.6481 14.5731 25.6361 12.666 25.8997 10.7702C27.6097 10.9974 29.3623 11.1281 31.1486 11.1621V15.9599ZM31.1486 9.2865C29.4813 9.2535 27.8458 9.133 26.2501 8.92488C26.9132 6.20938 28.4996 2.78726 31.1486 2.00626V9.2865ZM42.4082 8.08513C41.5505 8.29738 40.6773 8.48138 39.7905 8.63813C39.3374 6.693 38.575 4.76276 37.4297 3.16889C39.547 4.26201 41.2888 5.98363 42.4082 8.08513ZM33.0237 2.00626C35.1942 2.62126 37.0453 5.32726 37.9225 8.925C36.3265 9.133 34.6909 9.25362 33.0237 9.28662V2.00626ZM33.0237 11.1621C34.8104 11.1282 36.5635 10.9975 38.274 10.7701C38.5227 12.5504 38.5389 14.454 38.2742 16.352C36.5635 16.1246 34.8104 15.9939 33.0237 15.9599V11.1621ZM33.0237 25.116V17.8355C34.691 17.8685 36.3267 17.9891 37.9227 18.1972C37.045 21.795 35.1942 24.5008 33.0237 25.116ZM37.4297 23.9532C38.5832 22.3493 39.3422 20.4089 39.7907 18.484C40.6773 18.6407 41.5504 18.8247 42.4083 19.0371C41.2888 21.1386 39.5469 22.8601 37.4297 23.9532ZM43.1617 17.2942C42.1699 17.0405 41.159 16.8229 40.1309 16.6406C40.4068 14.6465 40.4174 12.5522 40.1309 10.4815C41.159 10.2992 42.1699 10.0817 43.1617 9.828C43.9764 12.239 43.978 14.8781 43.1617 17.2942Z" fill="#472880"/>
<path d="M52.9065 12.6236H48.0626C47.5448 12.6236 47.125 13.0432 47.125 13.5612C47.125 14.0791 47.5446 14.4988 48.0626 14.4988H52.9065C53.4244 14.4988 53.8441 14.0792 53.8441 13.5612C53.8441 13.0432 53.4244 12.6236 52.9065 12.6236Z" fill="#472880"/>
<path d="M52.2088 5.54573C51.967 5.08798 51.3999 4.91273 50.9419 5.15448L46.6585 7.41623C45.7954 7.87185 46.1254 9.1831 47.0971 9.1831C47.4053 9.1831 47.1343 9.28535 51.8174 6.8126C52.2754 6.57085 52.4506 6.0036 52.2088 5.54573Z" fill="#472880"/>
<path d="M15.9379 12.6236H11.0939C10.576 12.6236 10.1562 13.0432 10.1562 13.5612C10.1562 14.079 10.5759 14.4988 11.0939 14.4988H15.9377C16.4556 14.4988 16.8754 14.0792 16.8754 13.5612C16.8754 13.0432 16.4557 12.6236 15.9379 12.6236Z" fill="#472880"/>
<path d="M17.3467 7.4161L13.0631 5.15435C12.605 4.91248 12.038 5.08785 11.7962 5.5456C11.5543 6.0036 11.7296 6.57085 12.1875 6.81248C16.8216 9.25922 16.5898 9.18297 16.908 9.18297C17.8822 9.18297 18.2083 7.8711 17.3467 7.4161Z" fill="#472880"/>
<path d="M51.8152 19.9171L47.5318 17.6553C47.0735 17.4133 46.5065 17.5888 46.2649 18.0466C46.0232 18.5046 46.1983 19.0718 46.6562 19.3134C51.2899 21.7602 51.0583 21.6839 51.3764 21.6839C52.3508 21.6841 52.6769 20.3721 51.8152 19.9171Z" fill="#472880"/>
<path d="M17.734 18.0467C17.4924 17.5889 16.925 17.4133 16.4671 17.6554L12.1835 19.9172C11.7256 20.1589 11.5505 20.7261 11.7923 21.1841C12.0338 21.6418 12.601 21.8173 13.0591 21.5753L17.3427 19.3137C17.8006 19.0718 17.9757 18.5047 17.734 18.0467Z" fill="#472880"/>
<path d="M17.0244 26.1926C13.7154 26.1926 11.0234 28.8844 11.0234 32.1933C11.0234 35.5022 13.7154 38.1943 17.0244 38.1943C20.3333 38.1943 23.0252 35.5023 23.0252 32.1933C23.0252 28.8843 20.3333 26.1926 17.0244 26.1926ZM17.0244 36.3191C14.7494 36.3191 12.8986 34.4682 12.8986 32.1932C12.8986 29.9183 14.7494 28.0676 17.0244 28.0676C19.2992 28.0676 21.1501 29.9183 21.1501 32.1932C21.1501 34.4682 19.2993 36.3191 17.0244 36.3191Z" fill="#472880"/>
<path d="M46.9773 26.1926C43.6684 26.1926 40.9766 28.8844 40.9766 32.1933C40.9766 35.5023 43.6684 38.1943 46.9773 38.1943C50.2863 38.1943 52.9783 35.5023 52.9783 32.1933C52.9783 28.8843 50.2863 26.1926 46.9773 26.1926ZM46.9773 36.3191C44.7026 36.3191 42.8517 34.4682 42.8517 32.1932C42.8517 29.9183 44.7024 28.0676 46.9773 28.0676C49.2522 28.0676 51.1032 29.9183 51.1032 32.1932C51.1032 34.4682 49.2523 36.3191 46.9773 36.3191Z" fill="#472880"/>
<path d="M56.9418 48.6594C57.4597 48.6594 57.8795 48.2398 57.8795 47.7218V43.5638C57.8795 40.2439 55.3192 39.473 54.3328 39.4561C54.3275 39.456 54.3221 39.456 54.3167 39.456C54.2921 39.456 40.127 39.4558 40.1024 39.4562C39.7647 39.4648 38.5982 39.5862 37.7667 40.7878L31.9984 49.1261L26.2299 40.7881C25.3989 39.5863 24.2323 39.465 23.8944 39.4563C23.8864 39.4562 23.8785 39.4561 23.8705 39.4561C23.8618 39.4561 9.67256 39.456 9.66381 39.4562C8.67731 39.4732 6.11719 40.2442 6.11719 43.5639V56.7524C6.11719 58.0966 7.21081 59.1902 8.55493 59.1902C9.51893 59.1902 9.67981 59.2072 10.0277 59.1247V63.0624C10.0277 63.5803 10.4473 64 10.9653 64H14.7158C15.2337 64 15.6534 63.5804 15.6534 63.0624C15.6534 62.5445 15.2338 62.1248 14.7158 62.1248H11.9031V56.7524V44.4389C11.9031 43.9211 11.4834 43.5013 10.9654 43.5013C10.4476 43.5013 10.0278 43.9209 10.0278 44.4389V56.7524C10.0278 57.0626 9.77543 57.3149 9.46531 57.3149H8.55506C8.24493 57.3149 7.99256 57.0626 7.99256 56.7524V43.5641C7.99256 42.0633 8.77043 41.3947 9.69443 41.3315H23.8554C23.9544 41.3358 24.3615 41.3833 24.6879 41.8549L30.8581 50.7744C30.811 50.8426 29.6628 52.5007 29.6206 52.5664L23.8532 44.2297C23.3318 43.4758 22.1445 43.8467 22.1445 44.7631V62.1249H19.091C18.5732 62.1249 18.1534 62.5445 18.1534 63.0625C18.1534 63.5804 18.573 64.0002 19.091 64.0002H23.0822C23.6 64.0002 24.0198 63.5805 24.0198 63.0625V47.7663L29.5599 55.7744C30.721 57.4536 33.2813 57.4451 34.4364 55.7746L39.9766 47.7663V63.0625C39.9766 63.5804 40.3964 64.0002 40.9142 64.0002H53.0312C53.5491 64.0002 53.9688 63.5805 53.9688 63.0625V59.1248C54.3166 59.2073 54.4768 59.1903 55.4416 59.1903C56.7857 59.1903 57.8793 58.0967 57.8793 56.7526V52.0974C57.8793 51.5796 57.4597 51.1598 56.9417 51.1598C56.4238 51.1598 56.0041 51.5794 56.0041 52.0974V56.7526C56.0041 57.0627 55.7517 57.3151 55.4416 57.3151H54.5313C54.2211 57.3151 53.9688 57.0627 53.9688 56.7526V44.4391C53.9688 43.9212 53.5492 43.5014 53.0312 43.5014C52.5132 43.5014 52.0936 43.9211 52.0936 44.4391C52.0936 45.3531 52.0936 61.2173 52.0936 62.1249H41.8517V44.7629C41.8517 43.8463 40.6641 43.4759 40.1431 44.2296C32.3629 55.4757 32.8278 54.9688 32.3348 55.1081C31.4203 55.3672 30.6766 54.3329 31.219 53.5486L39.3089 41.8547C39.6349 41.3833 40.042 41.3358 40.141 41.3315C55.4242 41.3315 54.5498 41.2153 55.1901 41.6389C55.7301 41.9963 56.0041 42.6442 56.0041 43.5641V47.7221C56.0042 48.2398 56.424 48.6594 56.9418 48.6594Z" fill="#472880"/>
</g>
<path d="M79 66.1551L78.9645 66.125L79 66.0849L78.0984 65.3221L71.7921 59.5215C71.7921 59.5215 71.6807 59.6369 71.4983 59.8075L71.3311 59.9882C69.8926 61.3179 65.2832 65.1666 59.8735 65.2419C59.757 65.2419 59.6404 65.2419 59.5239 65.2419C56.6772 64.9358 53.9015 63.4204 51.0852 60.6154C46.4099 55.9388 41.2078 53.4148 35.6107 53.0786C35.4537 53.0786 35.2966 53.0786 35.1447 53.0786C34.3027 53.0046 33.4568 52.9828 32.612 53.0133C24.1834 53.3546 17.9227 58.9545 15.7953 61.1122C15.3394 61.5186 15.0658 61.8096 15.0051 61.8598L15.0355 61.8899C15.0262 61.9068 15.0142 61.9221 15 61.9351L15.9016 62.6878L22.2079 68.4934L22.5017 68.2024L22.6689 68.0217C24.1023 66.687 28.7168 62.8383 34.1266 62.7681C34.2431 62.7681 34.3545 62.7681 34.471 62.7681C37.3228 63.0741 40.0935 64.5895 42.9098 67.3945C47.5901 72.0511 52.782 74.5751 58.3792 74.9213C58.5311 74.9213 58.6882 74.9213 58.8452 74.9213C59.6872 74.9955 60.5331 75.0172 61.3778 74.9865C69.8065 74.6453 76.0672 69.0504 78.1946 66.8927C78.6353 66.4712 78.9139 66.1852 78.9696 66.125" fill="#EFC825"/>
<defs>
<clipPath id="clip0">
<rect width="64" height="64" fill="white"/>
</clipPath>
</defs>
</svg>

<svg width="79" height="75" fill="none" xmlns="http://www.w3.org/2000/svg"><g clip-path="url(#clip0)" fill="#472880"><path d="M44.606 8.343c-4.636-11.111-20.394-11.136-25.04 0a13.565 13.565 0 00-.016 10.39l.016.047c4.586 10.991 20.36 11.214 25.04 0 1.363-3.237 1.416-7.039 0-10.437zM26.743 3.169c-1.156 1.607-1.914 3.549-2.361 5.47a39.61 39.61 0 01-2.618-.554 11.768 11.768 0 014.98-4.916zm-5.732 6.659c.991.254 2.002.471 3.03.654a22.584 22.584 0 000 6.159c-1.028.182-2.039.4-3.03.654a11.695 11.695 0 010-7.467zm.753 9.21a39.667 39.667 0 012.618-.554c.446 1.916 1.203 3.859 2.361 5.47a11.77 11.77 0 01-4.979-4.917zm9.385 6.078c-2.65-.782-4.247-4.245-4.899-6.919a44.762 44.762 0 014.899-.362v7.28zm0-9.156a46.5 46.5 0 00-5.25.392 20.25 20.25 0 010-5.582c1.71.227 3.463.358 5.25.392v4.798zm0-6.674a44.729 44.729 0 01-4.899-.361c.663-2.716 2.25-6.138 4.899-6.919v7.28zm11.26-1.2a39.57 39.57 0 01-2.618.552c-.454-1.945-1.216-3.875-2.361-5.47a11.769 11.769 0 014.978 4.917zm-9.385-6.08c2.17.615 4.021 3.321 4.898 6.919a44.772 44.772 0 01-4.898.362v-7.28zm0 9.156a46.55 46.55 0 005.25-.392 20.32 20.32 0 010 5.582 46.58 46.58 0 00-5.25-.392v-4.798zm0 13.954v-7.28a44.78 44.78 0 014.899.361c-.878 3.598-2.729 6.304-4.9 6.919zm4.406-1.163c1.153-1.604 1.912-3.544 2.36-5.469.887.157 1.76.34 2.618.553a11.77 11.77 0 01-4.978 4.916zm5.732-6.659a41.387 41.387 0 00-3.031-.653 22.587 22.587 0 000-6.16c1.028-.182 2.039-.4 3.03-.653.815 2.411.817 5.05 0 7.466zm9.745-4.67h-4.844a.938.938 0 100 1.875h4.843a.937.937 0 100-1.875zm-.698-7.078a.938.938 0 00-1.267-.392l-4.284 2.262c-.863.456-.533 1.767.44 1.767.307 0 .036.102 4.72-2.37a.937.937 0 00.39-1.267zm-36.271 7.078h-4.844a.938.938 0 100 1.875h4.844a.938.938 0 100-1.875zm1.409-5.208l-4.284-2.262a.938.938 0 10-.876 1.658c4.635 2.447 4.403 2.371 4.721 2.371.974 0 1.3-1.312.439-1.767zm34.468 12.501l-4.283-2.262a.937.937 0 10-.876 1.658c4.634 2.447 4.402 2.37 4.72 2.37.975.001 1.3-1.31.44-1.766zm-34.081-1.87a.937.937 0 00-1.267-.392l-4.283 2.262a.937.937 0 10.875 1.658l4.284-2.261a.938.938 0 00.391-1.267zm-.71 8.146a6.008 6.008 0 00-6 6 6.008 6.008 0 006 6.001 6.007 6.007 0 006.001-6 6.007 6.007 0 00-6-6.001zm0 10.126a4.13 4.13 0 01-4.125-4.126 4.13 4.13 0 014.125-4.125 4.13 4.13 0 014.126 4.125 4.13 4.13 0 01-4.126 4.126zm29.953-10.126c-3.309 0-6 2.691-6 6a6.008 6.008 0 006 6.001 6.008 6.008 0 006.001-6 6.007 6.007 0 00-6-6.001zm0 10.126a4.13 4.13 0 01-4.125-4.126 4.13 4.13 0 014.125-4.125 4.13 4.13 0 014.126 4.125 4.13 4.13 0 01-4.126 4.126zm9.965 12.341c.518 0 .938-.42.938-.938v-4.158c0-3.32-2.56-4.091-3.547-4.108H40.102c-.337.009-1.504.13-2.335 1.332l-5.769 8.338-5.768-8.338c-.831-1.202-1.998-1.323-2.336-1.332H9.664c-.987.017-3.547.788-3.547 4.108v13.188a2.44 2.44 0 002.438 2.438c.964 0 1.125.017 1.473-.065v3.937c0 .518.42.938.937.938h3.75a.937.937 0 100-1.875h-2.812V44.439a.938.938 0 10-1.875 0v12.313c0 .31-.253.563-.563.563h-.91a.563.563 0 01-.562-.563V43.564c0-1.5.777-2.17 1.701-2.233h14.161c.1.005.506.052.833.524l6.17 8.92c-.047.068-1.195 1.726-1.237 1.791l-5.768-8.336c-.521-.754-1.709-.383-1.709.533v17.362h-3.053a.938.938 0 100 1.875h3.991c.518 0 .938-.42.938-.938V47.767l5.54 8.008c1.161 1.68 3.721 1.671 4.876 0l5.54-8.008v15.297c0 .517.42.937.938.937h12.117c.518 0 .938-.42.938-.938v-3.937c.348.082.508.065 1.473.065a2.44 2.44 0 002.437-2.437v-4.656a.938.938 0 10-1.875 0v4.656c0 .31-.252.562-.562.562h-.91a.563.563 0 01-.563-.562V44.439a.938.938 0 10-1.875 0v17.686H41.852V44.763c0-.917-1.188-1.287-1.709-.533-7.78 11.246-7.315 10.739-7.808 10.878-.915.26-1.658-.775-1.116-1.56l8.09-11.693c.326-.472.733-.52.832-.523 15.283 0 14.409-.117 15.05.307.54.357.813 1.005.813 1.925v4.158c0 .518.42.937.938.937z"/></g><path d="M79 66.155l-.035-.03.035-.04-.902-.763-6.306-5.8s-.111.115-.294.285l-.167.181c-1.438 1.33-6.048 5.179-11.458 5.254h-.35c-2.846-.306-5.622-1.822-8.438-4.627-4.675-4.676-9.877-7.2-15.474-7.536h-.466a20.487 20.487 0 00-2.533-.066c-8.429.342-14.69 5.942-16.817 8.1-.456.406-.73.697-.79.747l.03.03a.177.177 0 01-.035.045l.902.753 6.306 5.805.294-.29.167-.181c1.433-1.335 6.048-5.184 11.458-5.254h.344c2.852.306 5.623 1.822 8.439 4.626 4.68 4.657 9.872 7.181 15.47 7.527h.465c.842.075 1.688.096 2.533.066 8.428-.342 14.69-5.937 16.817-8.094.44-.422.719-.708.775-.768" fill="#EFC825"/><defs><clipPath id="clip0"><path fill="#fff" d="M0 0h64v64H0z"/></clipPath></defs></svg>
